!! 00000] TT[WS
!!!OTL: Xiu hebao
!!!ARE: Asia, China,ÿShanxi Xieju
!! Ethnic Group: Han
!! WI, 111
!!!SCT: J0129
!!!YEM: Copyright 1995, estate of Helmut Schaffrath.
**kern
*ICvox
*Ivox
*M2/4
*k[b-e-a-]
*E-:
{8ee-
16cc
16b-
16cc
16b-
8a-
=1
2b-
=2
4ff
8cc
8ee-
=3
2ff}
=4
{4ee-
8cc
8ee-
=5
4ff
4ee-
=6
8cc
8ff
16cc
16b-
8a-
=7
2b-}
=8
{16cc
16ff
8ff
8ff
8ee-
=9
4cc
4r}
=10
{4ff
4ff
=11
4ee-
4ee-
=12
8ff
16cc
16ee-
16cc
16b-
8a-
=13
2b-}
==
!!!AGN: Xiaodiao. Qingge
!!!ONB: ESAC (Essen Associative Code) Database: CHINA
!!!AMT: simple duple
!!!AIN: vox
!!!EED: Helmut Schaffrath
!!!EEV: 1.0
*-
